groups/sulfur/dithiocarbamate.svg

<svg height="256" viewBox="0 0 256 256" width="256" xmlns="http://www.w3.org/2000/svg"><path d="m0 0h256v256h-256z" fill="#fff"/><g fill="none" stroke-width="2"><path d="m227 132.1-54.8-31.6" stroke="#000"/><path d="m176.9 103.3-.1-45" stroke="#000"/><path d="m167.4 103.3-.1-45" stroke="#000"/><path d="m172.2 100.5-41.3 24" stroke="#000"/><path d="m103.9 124.5-27.9-16" stroke="#000"/><path d="m117.5 153.4v28.7" stroke="#000"/><path d="m174.9 102.1-2.7-1.6-2.1 1.2" stroke="#000" stroke-miterlimit="10"/><path d="m242.8 104.63c-2.058-1.182-3.634 1.562-1.576 2.744 2.057 1.182.481 3.926-1.577 2.743-2.058-1.182-3.634 1.562-1.576 2.744 2.057 1.182.481 3.926-1.577 2.743-2.058-1.182-3.634 1.562-1.576 2.744 2.057 1.182.481 3.926-1.577 2.743-2.057-1.182-3.634 1.561-1.576 2.744 2.057 1.182.481 3.926-1.577 2.743-2.057-1.182-3.634 1.561-1.576 2.744 2.057 1.182.481 3.926-1.577 2.743-2.057-1.182-3.634 1.561-1.576 2.744 2.057 1.182.481 3.926-1.577 2.743-2.057-1.182-3.634 1.561-1.576 2.744 2.057 1.182.481 3.926-1.577 2.743-2.057-1.182-3.634 1.561-1.576 2.744 2.057 1.182.481 3.926-1.577 2.743-2.057-1.182-3.634 1.561-1.576 2.744 2.057 1.182.481 3.926-1.577 2.743-2.057-1.182-3.634 1.561-1.576 2.744 2.058 1.182.481 3.926-1.577 2.743" stroke="#7f7f7f"/></g><text font-family="sans-serif" font-size="37" x="160.6" y="56.2">S</text><text font-family="sans-serif" font-size="37" x="106" y="151.3">N</text><text font-family="sans-serif" font-size="37" x="12.8" y="119.7">H</text><text font-family="sans-serif" font-size="25" x="39" y="134.9">3</text><text font-family="sans-serif" font-size="37" x="51.2" y="119.7">C</text><text font-family="sans-serif" font-size="37" x="106.2" y="214.5">C</text><text font-family="sans-serif" font-size="37" x="132.4" y="214.5">H</text><text font-family="sans-serif" font-size="25" x="158.6" y="229.7">3</text></svg>

<?xml version='1.0' encoding='iso-8859-1'?>
<svg version='1.1' baseProfile='full'
              xmlns='http://www.w3.org/2000/svg'
                      xmlns:rdkit='http://www.rdkit.org/xml'
                      xmlns:xlink='http://www.w3.org/1999/xlink'
                  xml:space='preserve'
width='256px' height='256px' viewBox='0 0 256 256'>
<!-- END OF HEADER -->
<rect style='opacity:1.0;fill:#FFFFFF;stroke:none' width='256.0' height='256.0' x='0.0' y='0.0'> </rect>
<path class='bond-0 atom-0 atom-1' d='M 227.0,132.1 L 172.2,100.5' style='fill:none;fill-rule:evenodd;stroke:#000000;stroke-width:2.0px;stroke-linecap:butt;stroke-linejoin:miter;stroke-opacity:1' />
<path class='bond-1 atom-1 atom-2' d='M 176.9,103.3 L 176.8,58.3' style='fill:none;fill-rule:evenodd;stroke:#000000;stroke-width:2.0px;stroke-linecap:butt;stroke-linejoin:miter;stroke-opacity:1' />
<path class='bond-1 atom-1 atom-2' d='M 167.4,103.3 L 167.3,58.3' style='fill:none;fill-rule:evenodd;stroke:#000000;stroke-width:2.0px;stroke-linecap:butt;stroke-linejoin:miter;stroke-opacity:1' />
<path class='bond-2 atom-1 atom-3' d='M 172.2,100.5 L 130.9,124.5' style='fill:none;fill-rule:evenodd;stroke:#000000;stroke-width:2.0px;stroke-linecap:butt;stroke-linejoin:miter;stroke-opacity:1' />
<path class='bond-3 atom-3 atom-4' d='M 103.9,124.5 L 76.0,108.5' style='fill:none;fill-rule:evenodd;stroke:#000000;stroke-width:2.0px;stroke-linecap:butt;stroke-linejoin:miter;stroke-opacity:1' />
<path class='bond-4 atom-3 atom-5' d='M 117.5,153.4 L 117.5,182.1' style='fill:none;fill-rule:evenodd;stroke:#000000;stroke-width:2.0px;stroke-linecap:butt;stroke-linejoin:miter;stroke-opacity:1' />
<path d='M 174.9,102.1 L 172.2,100.5 L 170.1,101.7' style='fill:none;stroke:#000000;stroke-width:2.0px;stroke-linecap:butt;stroke-linejoin:miter;stroke-miterlimit:10;stroke-opacity:1;' />
<path class='atom-1' d='M242.8,104.63 C240.742,103.448 239.166,106.192 241.224,107.374 C243.281,108.556 241.705,111.3 239.647,110.117 C237.589,108.935 236.013,111.679 238.071,112.861 C240.128,114.043 238.552,116.787 236.494,115.604 C234.436,114.422 232.86,117.166 234.918,118.348 C236.975,119.53 235.399,122.274 233.341,121.091 C231.284,119.909 229.707,122.652 231.765,123.835 C233.822,125.017 232.246,127.761 230.188,126.578 C228.131,125.396 226.554,128.139 228.612,129.322 C230.669,130.504 229.093,133.248 227.035,132.065 C224.978,130.883 223.401,133.626 225.459,134.809 C227.516,135.991 225.94,138.735 223.882,137.552 C221.825,136.37 220.248,139.113 222.306,140.296 C224.363,141.478 222.787,144.222 220.729,143.039 C218.672,141.857 217.095,144.6 219.153,145.783 C221.21,146.965 219.634,149.709 217.576,148.526 C215.519,147.344 213.942,150.087 216,151.27 C218.057,152.452 216.481,155.196 214.423,154.013 C212.366,152.831 210.789,155.574 212.847,156.757 C214.905,157.939 213.328,160.683 211.27,159.5' style='fill:none;stroke:#7F7F7F;stroke-width:2.0px;stroke-linecap:butt;stroke-linejoin:miter;stroke-opacity:1' />
<text x='160.6' y='56.2' class='atom-2' style='font-size:37px;font-style:normal;font-weight:normal;fill-opacity:1;stroke:none;font-family:sans-serif;text-anchor:start;fill:#000000' >S</text>
<text x='106.0' y='151.3' class='atom-3' style='font-size:37px;font-style:normal;font-weight:normal;fill-opacity:1;stroke:none;font-family:sans-serif;text-anchor:start;fill:#000000' >N</text>
<text x='12.8' y='119.7' class='atom-4' style='font-size:37px;font-style:normal;font-weight:normal;fill-opacity:1;stroke:none;font-family:sans-serif;text-anchor:start;fill:#000000' >H</text>
<text x='39.0' y='134.9' class='atom-4' style='font-size:25px;font-style:normal;font-weight:normal;fill-opacity:1;stroke:none;font-family:sans-serif;text-anchor:start;fill:#000000' >3</text>
<text x='51.2' y='119.7' class='atom-4' style='font-size:37px;font-style:normal;font-weight:normal;fill-opacity:1;stroke:none;font-family:sans-serif;text-anchor:start;fill:#000000' >C</text>
<text x='106.2' y='214.5' class='atom-5' style='font-size:37px;font-style:normal;font-weight:normal;fill-opacity:1;stroke:none;font-family:sans-serif;text-anchor:start;fill:#000000' >C</text>
<text x='132.4' y='214.5' class='atom-5' style='font-size:37px;font-style:normal;font-weight:normal;fill-opacity:1;stroke:none;font-family:sans-serif;text-anchor:start;fill:#000000' >H</text>
<text x='158.6' y='229.7' class='atom-5' style='font-size:25px;font-style:normal;font-weight:normal;fill-opacity:1;stroke:none;font-family:sans-serif;text-anchor:start;fill:#000000' >3</text>
</svg>
